X: 37120
T: Simpler Times
R: reel
M: 4/4
K: Dmajor
|:F3 D E/F/G(F2|F)E F/E/D {F}EDB,A,|DA,FB, DG(F2|F)EF/E/D EDE/F/G|
F3 D E/F/G(F2|F)E F/E/D {F}EDB,A,|DA,FB, DG E2|1 F/E/DCE D2 D/D/D:|2 F/E/DCE D2 E/F/A||
B3 A Bd(G2|G4) GFEG|F2 DE/F/ A d2 A|B/c/da f2 edc|
B3 A Bd(G2|G4) EDCE|DCDE FEFG|A2 DE FAdc|
B3 A Bd(G2|G4) GFEG|F2 DE/F/ A d2 A|B/c/da f2 edc|
B3 A Bd(G2|G2)A/B/d edce|da{e}fe dBAF|D2 A,2 D2 E2||

